X:276
T:Quadrille
O:No 276  Page 92 Wm Clarke of Feltwell 
N:Page 92 Key sig of C section questionable.Very indistinct notation.
M:2/4
L:1/8
K:D
f| f2 ff|f/e/f/g/ a2| g2 f/g/ e/a/| f/g/e/f/ e z|f2 ff| f/e/f/g/ a2| g2f/g/ f/a/| d2z:|
:e2 ^d/e/g/e/| c2 A2| d2 fa| e2 (g/f/) e2| e2 ^d/e/g/e/|c2 A2| d2 fa|e2 e2:|| 
f2 ff| f b/g/f/e/ d| =c2 3(c/d/e/)| f2 ff| a/g/e/g/fed| ^ccd2|A/B/c/d/| FG|F2||

